Obsidian-SemiLight/actions/16s/node-segment-curve.svg

<svg viewBox="0 0 16 16" xmlns="http://www.w3.org/2000/svg"><path d="m11 2v3h3v-3zm1 1h1v1h-1zm-10 8v3h3v-3zm1 1h1v1h-1z" fill="#4d4d4d"/><path d="m11 3a8 8 0 0 0 -8 8h1a7 7 0 0 1 7-7z" fill="#3daee9"/></svg>

<svg xmlns="http://www.w3.org/2000/svg" viewBox="0 0 16 16">
  <defs id="defs3051">
    <style type="text/css" id="current-color-scheme">
      .ColorScheme-Text {
        color:#4d4d4d;
      }
      .ColorScheme-Highlight {
        color:#3daee9;
      }
      </style>
  </defs>
  <path 
        style="fill:currentColor;fill-opacity:1;stroke:none"
        d="M 11 2 L 11 5 L 14 5 L 14 2 L 11 2 z M 12 3 L 13 3 L 13 4 L 12 4 L 12 3 z M 2 11 L 2 14 L 5 14 L 5 11 L 2 11 z M 3 12 L 4 12 L 4 13 L 3 13 L 3 12 z "
        class="ColorScheme-Text"
        />
  <path
        style="fill:currentColor;fill-opacity:1;stroke:none"
        d="m 11,3 a 8,8 0 0 0 -8,8 l 1,0 a 7,7 0 0 1 7,-7 z"
        class="ColorScheme-Highlight"
      />
</svg>
